svg/tag_search.svg

<svg xmlns="http://www.w3.org/2000/svg" viewBox="0 0 24 24"><path d="m21.41 11.58-9-9C12.05 2.22 11.55 2 11 2H4c-1.11 0-2 .89-2 2v7c0 .55.22 1.05.59 1.41l8.99 9c.37.36.87.59 1.42.59s1.05-.23 1.41-.59l.42-.41C11.6 20.9 9 18.26 9 15c0-3.31 2.69-6 6-6 3.26 0 5.9 2.6 6 5.83l.41-.42c.37-.36.59-.86.59-1.41 0-.56-.23-1.06-.59-1.42M5.5 7C4.67 7 4 6.33 4 5.5S4.67 4 5.5 4 7 4.67 7 5.5 6.33 7 5.5 7m9.61 3.61c2.5 0 4.5 2 4.5 4.5 0 .89-.25 1.71-.69 2.39L22 20.61 20.61 22l-3.11-3.07c-.7.43-1.5.68-2.39.68-2.5 0-4.5-2-4.5-4.5s2-4.5 4.5-4.5m0 2a2.5 2.5 0 1 0 2.5 2.5c0-1.39-1.11-2.5-2.5-2.5"/></svg>

<svg xmlns="http://www.w3.org/2000/svg" id="mdi-tag-search" viewBox="0 0 24 24"><path d="M21.41 11.58L12.41 2.58C12.05 2.22 11.55 2 11 2H4C2.89 2 2 2.89 2 4V11C2 11.55 2.22 12.05 2.59 12.41L11.58 21.41C11.95 21.77 12.45 22 13 22S14.05 21.77 14.41 21.41L14.83 21C11.6 20.9 9 18.26 9 15C9 11.69 11.69 9 15 9C18.26 9 20.9 11.6 21 14.83L21.41 14.41C21.78 14.05 22 13.55 22 13C22 12.44 21.77 11.94 21.41 11.58M5.5 7C4.67 7 4 6.33 4 5.5S4.67 4 5.5 4 7 4.67 7 5.5 6.33 7 5.5 7M15.11 10.61C17.61 10.61 19.61 12.61 19.61 15.11C19.61 16 19.36 16.82 18.92 17.5L22 20.61L20.61 22L17.5 18.93C16.8 19.36 16 19.61 15.11 19.61C12.61 19.61 10.61 17.61 10.61 15.11S12.61 10.61 15.11 10.61M15.11 12.61C13.73 12.61 12.61 13.73 12.61 15.11S13.73 17.61 15.11 17.61 17.61 16.5 17.61 15.11 16.5 12.61 15.11 12.61" /></svg>
